packages/icons/svgs/duotone/Source=hyperlink.svg

<svg width="24" height="24" viewBox="0 0 24 24" fill="none" xmlns="http://www.w3.org/2000/svg">
<path fill-rule="evenodd" clip-rule="evenodd" d="M14 7C14 6.44772 14.4477 6 15 6H18C21.3523 6 24 8.64772 24 12C24 15.3523 21.3523 18 18 18H15C14.4477 18 14 17.5523 14 17C14 16.4477 14.4477 16 15 16H18C20.2477 16 22 14.2477 22 12C22 9.75228 20.2477 8 18 8H15C14.4477 8 14 7.55228 14 7Z" fill="black" style="fill:black;fill-opacity:1;"/>
<path fill-rule="evenodd" clip-rule="evenodd" d="M6 8C3.75228 8 2 9.75228 2 12C2 14.2477 3.75228 16 6 16H9C9.55229 16 10 16.4477 10 17C10 17.5523 9.55229 18 9 18H6C2.64772 18 0 15.3523 0 12C0 8.64772 2.64772 6 6 6H9C9.55229 6 10 6.44772 10 7C10 7.55228 9.55229 8 9 8H6Z" fill="black" style="fill:black;fill-opacity:1;"/>
<path opacity="0.5" fill-rule="evenodd" clip-rule="evenodd" d="M7 12C7 11.4477 7.44772 11 8 11H16C16.5523 11 17 11.4477 17 12C17 12.5523 16.5523 13 16 13H8C7.44772 13 7 12.5523 7 12Z" fill="black" style="fill:black;fill-opacity:1;"/>
</svg>

<svg xmlns="http://www.w3.org/2000/svg" width="24" height="24" viewBox="0 0 24 24"><path fill-rule="evenodd" d="M14 7a1 1 0 0 1 1-1h3c3.352 0 6 2.648 6 6s-2.648 6-6 6h-3a1 1 0 1 1 0-2h3c2.248 0 4-1.752 4-4s-1.752-4-4-4h-3a1 1 0 0 1-1-1M6 8c-2.248 0-4 1.752-4 4s1.752 4 4 4h3a1 1 0 1 1 0 2H6c-3.352 0-6-2.648-6-6s2.648-6 6-6h3a1 1 0 1 1 0 2z" clip-rule="evenodd"/><path fill-rule="evenodd" d="M7 12a1 1 0 0 1 1-1h8a1 1 0 1 1 0 2H8a1 1 0 0 1-1-1" clip-rule="evenodd" opacity=".5"/></svg>
